X:1
T:Cradle Song
T:Cradle Song
T:Frank Bridge
T:To Phyllis Compton
T:H.96
C:Frank Bridge
%%score 1 { ( 2 4 ) | ( 3 5 6 ) }
L:1/8
Q:1/4=70
M:3/4
K:F
V:1 treble nm="Violino"
V:2 treble nm="Piano"
V:4 treble 
V:3 bass 
V:5 bass 
V:6 bass 
V:1
"^Andante moderato" z6 | z6 |!p! (C4 FD) | c4 (3(BcB) | (F4 BG) | f4 (3(efd) | %6
 c3-!<(! c (_ed)!<)! | (cB d)!<(!(A Gc)!<)! | B3!>(! (A Gc)!>)! | (BD F)!<(!(G Ad)!<)! | (f2 c4- | %11
 c2)!>(! (BA G>D)!>)! | F6- | F4 z2 |!mf! f4 !tenuto!_e!tenuto!_d | !tenuto!_e!tenuto!c (e2 _d2) | %16
 (_ec) e_d (BF) |!<(! (_AB) c_d{/f} (_ed)!<)! |!f! _a4 !tenuto!g!tenuto!f | %19
!<(! g_e!<)!!>(! (g2!>)! f2) | (g_e) gf (_dF) |!<(! (_Ac) fg{/b} (_ag)!<)! | %22
 _ag!>(!{/b} (a3!>)! g) |!p! (^g4 =B2- | B2) (e2 ^d=B) | ^f6- | f6 |!p!!<(! (=g4 _B2-!<)! | %28
 B2)!>(! (_e2 dB)!>)! |!p! (d4 cB) |!<(! cA (c2!<)! B2) | (cA) cB (GD) | %32
!>(! (FG) (AB){/d} (cB)!>)! |!pp! (A4 d2) | (a4 f2) | (c7/2 d/ (6:4:6c/d/c/d/c/d/) || %36
[M:4/4] !trill(!Tc4-[Q:1/4=65]"_poco rit."[Q:1/4=65]"^poco rit." (c3 =B/!trill)!c/) || %37
[M:3/4][Q:1/4=70]"_a tempo"[Q:1/4=70]"^a tempo"!pp!"^ad lib."!8va(! (c4 fd) | c'4 (3bc'g | %39
 (f4 bg) | f'4 (3e'f'd' |!<(! (c'3!<)! d') (_e'd') | (c'b d')(a gc') | b3 (a gc') | %44
 (bd!<(! f)(g ad')!<)! | (f'2!>(! c'4-) | c'2!>)! (ba g>d)!8va)! | (f2 c4-) | c2 (BA G>D) | %49
[Q:1/4=60]"_rall. e dim"[Q:1/4=60]"^rall. e dim"!>(! (G>D) (G>D) (!fermata!G>D)!>)! | %50
[Q:1/4=70]"_a tempo"[Q:1/4=70]"^a tempo"!pp! (F4 BG) | f6 |"^ad lib."!8va(! f'6- | %53
!>(! !fermata!f'6- | f'!8va)!!>)! z z2 z2 |] %55
V:2
!pp! !arpeggio![CFc]2 [DFBc]4 | !arpeggio![CFc]2 [DFBc]4 | !arpeggio![CFc]2 [DFBc]4 | %3
 !arpeggio![CFc]2 [DFBc]4 | !arpeggio![CFc]2 [DFBc]4 | !arpeggio![CFc]2 [DFBc]4 | %6
 !arpeggio![CFc]2 [CGc]4 | !arpeggio![DGd]2 [CGA]4 | !arpeggio![DGd]2 [CGA]4 | %9
!<(! !arpeggio![DGd]2!<)! [A,=B,FA]4 |!<(! [FAc]2 [FBc]4!<)! | c6 | !arpeggio![CFc]2 [DFBc]4 | %13
 !arpeggio![CFc]2 [DFBc]4 |!mf! [CFc]2 [_DFBc]4 | [CFc]2 [_DFBc]4 | [CFc]2 [_DFBc]4 | %17
!<(! [CFc]2 [_D_F_A]2!<)! [D=FG]2 |!mf! [CFc]2 [_D_A_d]4 | [_EB_e]2 [F_A_df]4 | %20
 [GB_eg]2 [_A_df_a]4 | [c_e_ac']2"_dim." [B_dgb]4- | [Bdgb]6 |!p! ([E=B][=B,^G][EB][B,G][EB][B,G] | %24
 [E=B][=B,^G][EB][B,G][EB][B,G]) |!<(! ([^Ge][E^c] [^F^d]!<)![^D^A] [D=B][=B,G]) | %26
 ([=D=A][A,^F] [D=B]!>(![=B,=G] [^F^c][^C^A])!>)! |!p! ([_E_B][_B,G] [EB][B,G] [EB][B,G] | %28
 ([_EB])[B,G][EB][B,G][EB][B,G]) |!p! ([DA][A,F] [B,G][G,D][B,G][G,D]) | %30
 ([DA][A,F] [B,G][G,D][B,G][G,D]) | ([DA][A,F] [B,G][G,D][B,G][G,D]) | %32
 ([DA][A,F] [B,G][G,D][B,G][G,D]) |!pp! [A,D^F]2 [B,=F]4 | [A,D^F]2 [B,=F]4 | %35
 z2!p! [FB][DG][B,E][A,D] ||[M:4/4] z2 (Bc AG- [EG]2) || %37
[M:3/4]!pp! !arpeggio![CFc]2 (3([DB][Fc][DB] [Fc][DB]) | %38
 !arpeggio![CFc]2 (3([DB][Fc][DB] [Fc][DB]) | !arpeggio![CFc]2 (3([DB][Fc][DB] [Fc][DB]) | %40
 !arpeggio![CFc]2 (3([DB][Fc][DB] [Fc][DB]) | !arpeggio![CFc]2 (3([CG][_Ec][CG] [Ec][CG]) | %42
 !arpeggio![DGd]2 (3([CG][_Ec][CG] [Ec][CG]) | !arpeggio![DGd]2 (3([CG][_Ec][CG] [Ec][CG]) | %44
 !arpeggio![DGd]2 (3([=B,F][DA][B,F] [DA][B,F]) | [FAc]2 (3[FBc]f[FBc] DF | c6 | %47
 [FAc]2 (3[FBc]f[FBc] DF | c6 |"_dim." ([Fc][DB] [Fc][DB] [Fc]!fermata![DB]) |!pp! [CFc]2 [DFBc]4 | %51
 [Fc]2 [FBc]4 | (c4 fd) | [cfac']6- | [cfac'] z z2 z2 |] %55
V:3
"_Con"!ped! !arpeggio![F,,C,A,]2 [F,,C,G,]4 | !arpeggio![F,,C,A,]2 [F,,C,G,]4 | %2
 !arpeggio![F,,C,A,]2 [F,,C,G,]4 | !arpeggio![F,,C,A,]2 [F,,C,G,]4 | %4
 !arpeggio![F,,C,A,]2 [F,,C,G,]4 | !arpeggio![F,,C,A,]2 [F,,C,G,]4 | %6
 !arpeggio![F,,C,A,]2 [C,,G,,_E,]4 | !arpeggio![G,,D,B,]2 [G,,_E,A,]4 | %8
 !arpeggio![G,,D,B,]2 [G,,_E,A,]4 | !arpeggio![G,,D,B,]2 [D,,G,,F,]4 | [C,,C,]2 [C,G,]4 | %11
 [C,A,]2 [C,G,]4 | !arpeggio![F,,C,A,]2 [F,,C,G,]4 | !arpeggio![F,,C,A,]2 [F,,C,G,]4 | %14
 [F,,C,_A,]2 [F,,C,G,]4!ped-up! | [F,,C,_A,]2 [F,,C,G,]4 | [F,,C,_A,]2 [F,,C,G,]4 | %17
 [F,,C,_A,]2 [_D,_F,A,]2 [B,,=F,G,]2 | [F,,C,_A,]2 [F,A,]4 | [F,G,B,]2 [F,_A,_D]4 | %20
 [F,B,_E]2 [F,_A,_D]4 | [F,B,_E]2 (F2 =E2-) |!ped! [F,DE]6 | z2 (^D4 | ^C6)!ped-up! | %25
 (3^C,^B,,C, ^D,^F, ^G,2 | (3=A,^F,E, [D,=G,]2 [^C,^A,]2 | z2 D4- | D6 | (F,2 E,4) | (F,2 E,4) | %31
 (F,2 E,4) | (F,2 E,4) | ^F,2 =F,4 | ^F,2 =F,4 | z2 (DB,G,F,) ||[M:4/4] z2 G,A, B,4 || %37
[M:3/4] !arpeggio![F,,C,A,]2 [F,,C,G,]4 | !arpeggio![F,,C,A,]2 [F,,C,G,]4 | %39
 !arpeggio![F,,C,A,]2 [F,,C,G,]4 | !arpeggio![F,,C,A,]2 [F,,C,G,]4 | %41
 !arpeggio![F,,C,A,]2 [C,,G,,_E,]4 | !arpeggio![G,,D,B,]2 [G,,_E,A,]4 | %43
 !arpeggio![G,,D,B,]2 [G,,_E,A,]4 | !arpeggio![G,,D,B,]2 [D,,G,,F,]4 | [C,,C,]2 [C,G,]4 | %46
 [C,A,]2 [C,G,]4 | [C,,C,]2 [C,G,]4 | [C,A,]2 [C,G,]4- | [C,G,]6 | [F,,C,A,]2 [F,,C,G,]4 | %51
 [F,,C,A,]2 [F,,C,G,]4 | [F,,C,A,]2 [F,,C,G,]4 | z2 !fermata![C,F,A,C]4- | [C,F,A,C] z z2 z2 |] %55
V:4
 x6 | x6 | x6 | x6 | x6 | x6 | x6 | x6 | x6 | x6 | (C4 FD) | [CF]2 [DFB]4 | x6 | x6 | x6 | x6 | %16
 x6 | x6 | x6 | x6 | x6 | x6 | z!p!!>(! [Bb] [_d_d'][ee']!8va(! [bb']!>)!!pp![_d'_d'']!8va)! | x6 | %24
 x6 | x6 | x6 | x6 | x6 | x6 | x6 | x6 | x6 | x6 | x6 | x6 ||[M:4/4] x2 [DF]2- [D-F]2 DC || %37
[M:3/4] x6 | x6 | x6 | x6 | x6 | x6 | x6 | x6 | C4 x2 | [CF]2 (3([DB][Fc][DB] [Fc][DB]) | C4 x2 | %48
 [CF]2 (3([DB][Fc][DB] [Fc][DB]) | x6 | x6 | (C4 FD) | [CF]2 [DFB]4 | x6 | x6 |] %55
V:5
 x6 | x6 | x6 | x6 | x6 | x6 | x6 | x6 | x6 | x6 | x6 | x6 | x6 | x6 | x6 | x6 | x6 | x6 | x6 | %19
 x6 | x6 | x2 [F,_D]4- | x6 | [^F,,^C,^G,]6- | [F,,C,G,]6 | ^F,,6- | F,,6 | [=F,,=C,G,]6- | %28
 [F,,C,G,]6 | [D,,A,,]6 | [D,,A,,]6 | [D,,A,,]6 | [D,,A,,]6 | [D,,A,,]2 [G,,D,]4 | %34
 [D,,A,,]2 [G,,D,]4 | x6 ||[M:4/4] x2 C,2- C,4 ||[M:3/4] x6 | x6 | x6 | x6 | x6 | x6 | x6 | x6 | %45
 x6 | x6 | x6 | x6 | x6 | x6 | x6 | x6 | !fermata![F,C]6 | x6 |] %55
V:6
 x6 | x6 | x6 | x6 | x6 | x6 | x6 | x6 | x6 | x6 | x6 | x6 | x6 | x6 | x6 | x6 | x6 | x6 | x6 | %19
 x6 | x6 | x6 | x6 | x6 | x6 | x6 | x6 | x6 | x6 | x6 | x6 | x6 | x6 | x6 | x6 | x6 ||[M:4/4] x8 || %37
[M:3/4] x6 | x6 | x6 | x6 | x6 | x6 | x6 | x6 | x6 | x6 | x6 | x6 | x6 | x6 | x6 | x6 | %53
 z2 !fermata![F,,,F,,]4- | [F,,,F,,] x5 |] %55

